dist/images/download-google-play.svg

<svg width="136" height="40" viewBox="0 0 136 40" fill="none" xmlns="http://www.w3.org/2000/svg">
<path d="M0.5 5C0.5 2.23858 2.73858 0 5.5 0H130.5C133.261 0 135.5 2.23858 135.5 5V35C135.5 37.7614 133.261 40 130.5 40H5.5C2.73857 40 0.5 37.7614 0.5 35V5Z" fill="black"/>
<path d="M68.636 21.7509C66.284 21.7509 64.367 23.5399 64.367 26.0039C64.367 28.4529 66.284 30.2569 68.636 30.2569C70.989 30.2569 72.906 28.4529 72.906 26.0039C72.905 23.5399 70.988 21.7509 68.636 21.7509ZM68.636 28.5829C67.347 28.5829 66.236 27.5199 66.236 26.0049C66.236 24.4739 67.348 23.4269 68.636 23.4269C69.925 23.4269 71.036 24.4739 71.036 26.0049C71.036 27.5189 69.925 28.5829 68.636 28.5829ZM59.322 21.7509C56.97 21.7509 55.053 23.5399 55.053 26.0039C55.053 28.4529 56.97 30.2569 59.322 30.2569C61.675 30.2569 63.592 28.4529 63.592 26.0039C63.592 23.5399 61.675 21.7509 59.322 21.7509ZM59.322 28.5829C58.033 28.5829 56.922 27.5199 56.922 26.0049C56.922 24.4739 58.034 23.4269 59.322 23.4269C60.611 23.4269 61.722 24.4739 61.722 26.0049C61.723 27.5189 60.611 28.5829 59.322 28.5829ZM48.244 23.0569V24.8609H52.562C52.433 25.8759 52.095 26.6169 51.579 27.1319C50.951 27.7599 49.968 28.4529 48.244 28.4529C45.586 28.4529 43.508 26.3099 43.508 23.6519C43.508 20.9939 45.586 18.8509 48.244 18.8509C49.678 18.8509 50.725 19.4149 51.498 20.1399L52.771 18.8669C51.691 17.8359 50.258 17.0469 48.244 17.0469C44.603 17.0469 41.542 20.0109 41.542 23.6519C41.542 27.2929 44.603 30.2569 48.244 30.2569C50.209 30.2569 51.692 29.6119 52.851 28.4039C54.043 27.2119 54.414 25.5359 54.414 24.1829C54.414 23.7649 54.382 23.3779 54.317 23.0559H48.244V23.0569ZM93.552 24.4579C93.198 23.5079 92.118 21.7509 89.911 21.7509C87.72 21.7509 85.899 23.4749 85.899 26.0039C85.899 28.3879 87.704 30.2569 90.12 30.2569C92.069 30.2569 93.197 29.0649 93.665 28.3719L92.215 27.4049C91.732 28.1139 91.071 28.5809 90.12 28.5809C89.17 28.5809 88.493 28.1459 88.058 27.2919L93.745 24.9399L93.552 24.4579ZM87.752 25.8759C87.704 24.2319 89.025 23.3949 89.976 23.3949C90.717 23.3949 91.345 23.7659 91.555 24.2969L87.752 25.8759ZM83.129 29.9999H84.997V17.4989H83.129V29.9999ZM80.067 22.7019H80.003C79.584 22.2019 78.778 21.7509 77.764 21.7509C75.637 21.7509 73.688 23.6199 73.688 26.0209C73.688 28.4049 75.637 30.2579 77.764 30.2579C78.779 30.2579 79.584 29.8069 80.003 29.2919H80.067V29.9039C80.067 31.5309 79.197 32.4009 77.796 32.4009C76.652 32.4009 75.943 31.5799 75.653 30.8869L74.026 31.5639C74.493 32.6909 75.733 34.0769 77.796 34.0769C79.987 34.0769 81.84 32.7879 81.84 29.6459V22.0099H80.068V22.7019H80.067ZM77.925 28.5829C76.636 28.5829 75.557 27.5029 75.557 26.0209C75.557 24.5219 76.636 23.4269 77.925 23.4269C79.197 23.4269 80.196 24.5219 80.196 26.0209C80.196 27.5029 79.197 28.5829 77.925 28.5829ZM102.306 17.4989H97.835V29.9999H99.7V25.2639H102.305C104.373 25.2639 106.407 23.7669 106.407 21.3819C106.407 18.9969 104.374 17.4989 102.306 17.4989ZM102.354 23.5239H99.7V19.2389H102.354C103.749 19.2389 104.541 20.3939 104.541 21.3819C104.541 22.3499 103.749 23.5239 102.354 23.5239ZM113.886 21.7289C112.535 21.7289 111.136 22.3239 110.557 23.6429L112.213 24.3339C112.567 23.6429 113.227 23.4169 113.918 23.4169C114.883 23.4169 115.864 23.9959 115.88 25.0249V25.1539C115.542 24.9609 114.818 24.6719 113.934 24.6719C112.149 24.6719 110.331 25.6529 110.331 27.4859C110.331 29.1589 111.795 30.2359 113.435 30.2359C114.689 30.2359 115.381 29.6729 115.815 29.0129H115.879V29.9779H117.681V25.1849C117.682 22.9669 116.024 21.7289 113.886 21.7289ZM113.66 28.5799C113.05 28.5799 112.197 28.2739 112.197 27.5179C112.197 26.5529 113.259 26.1829 114.176 26.1829C114.995 26.1829 115.382 26.3599 115.88 26.6009C115.735 27.7599 114.738 28.5799 113.66 28.5799ZM124.243 22.0019L122.104 27.4219H122.04L119.82 22.0019H117.81L121.139 29.5769L119.241 33.7909H121.187L126.318 22.0019H124.243ZM107.437 29.9999H109.302V17.4989H107.437V29.9999Z" fill="white"/>
<path d="M47.918 10.2432C47.918 11.0812 47.6701 11.7482 47.173 12.2462C46.609 12.8382 45.8731 13.1342 44.9691 13.1342C44.1031 13.1342 43.3661 12.8342 42.7611 12.2342C42.1551 11.6332 41.8521 10.8892 41.8521 10.0012C41.8521 9.11219 42.1551 8.36819 42.7611 7.76819C43.3661 7.16719 44.1031 6.86719 44.9691 6.86719C45.3991 6.86719 45.8101 6.95119 46.2001 7.11819C46.5911 7.28619 46.904 7.50919 47.1381 7.78819L46.611 8.31619C46.214 7.84119 45.667 7.60419 44.968 7.60419C44.336 7.60419 43.79 7.82619 43.329 8.27019C42.868 8.71419 42.6381 9.29119 42.6381 10.0002C42.6381 10.7092 42.868 11.2862 43.329 11.7302C43.79 12.1742 44.336 12.3962 44.968 12.3962C45.638 12.3962 46.1971 12.1732 46.6441 11.7262C46.9341 11.4352 47.102 11.0302 47.147 10.5112H44.968V9.79019H47.875C47.905 9.94719 47.918 10.0982 47.918 10.2432Z" fill="white"/>
<path d="M52.5281 7.73724H49.7961V9.63924H52.2601V10.3602H49.7961V12.2622H52.5281V13.0002H49.0251V7.00024H52.5281V7.73724Z" fill="white"/>
<path d="M55.779 13.0002H55.008V7.73724H53.332V7.00024H57.455V7.73724H55.779V13.0002Z" fill="white"/>
<path d="M60.438 13.0002V7.00024H61.209V13.0002H60.438Z" fill="white"/>
<path d="M64.6281 13.0002H63.8572V7.73724H62.1812V7.00024H66.3042V7.73724H64.6281V13.0002Z" fill="white"/>
<path d="M74.1089 12.2252C73.5189 12.8312 72.7859 13.1342 71.9089 13.1342C71.0319 13.1342 70.2989 12.8312 69.7099 12.2252C69.1199 11.6192 68.8259 10.8772 68.8259 10.0002C68.8259 9.12323 69.1199 8.38123 69.7099 7.77523C70.2989 7.16923 71.0319 6.86523 71.9089 6.86523C72.7809 6.86523 73.5129 7.17023 74.1049 7.77923C74.6969 8.38823 74.9929 9.12823 74.9929 10.0002C74.9929 10.8772 74.6979 11.6192 74.1089 12.2252ZM70.2789 11.7222C70.7229 12.1722 71.2659 12.3962 71.9089 12.3962C72.5519 12.3962 73.0959 12.1712 73.5389 11.7222C73.9829 11.2722 74.2059 10.6982 74.2059 10.0002C74.2059 9.30223 73.9829 8.72823 73.5389 8.27823C73.0959 7.82823 72.5519 7.60423 71.9089 7.60423C71.2659 7.60423 70.7229 7.82923 70.2789 8.27823C69.8359 8.72823 69.6129 9.30223 69.6129 10.0002C69.6129 10.6982 69.8359 11.2722 70.2789 11.7222Z" fill="white"/>
<path d="M76.0749 13.0002V7.00024H77.013L79.929 11.6672H79.9619L79.929 10.5112V7.00024H80.6999V13.0002H79.8949L76.844 8.10625H76.8109L76.844 9.26224V13.0002H76.0749Z" fill="white"/>
<path d="M47.918 10.2432C47.918 11.0812 47.6701 11.7482 47.173 12.2462C46.609 12.8382 45.8731 13.1342 44.9691 13.1342C44.1031 13.1342 43.3661 12.8342 42.7611 12.2342C42.1551 11.6332 41.8521 10.8892 41.8521 10.0012C41.8521 9.11219 42.1551 8.36819 42.7611 7.76819C43.3661 7.16719 44.1031 6.86719 44.9691 6.86719C45.3991 6.86719 45.8101 6.95119 46.2001 7.11819C46.5911 7.28619 46.904 7.50919 47.1381 7.78819L46.611 8.31619C46.214 7.84119 45.667 7.60419 44.968 7.60419C44.336 7.60419 43.79 7.82619 43.329 8.27019C42.868 8.71419 42.6381 9.29119 42.6381 10.0002C42.6381 10.7092 42.868 11.2862 43.329 11.7302C43.79 12.1742 44.336 12.3962 44.968 12.3962C45.638 12.3962 46.1971 12.1732 46.6441 11.7262C46.9341 11.4352 47.102 11.0302 47.147 10.5112H44.968V9.79019H47.875C47.905 9.94719 47.918 10.0982 47.918 10.2432Z" stroke="white" stroke-width="0.2" stroke-miterlimit="10"/>
<path d="M52.5281 7.73724H49.7961V9.63924H52.2601V10.3602H49.7961V12.2622H52.5281V13.0002H49.0251V7.00024H52.5281V7.73724Z" stroke="white" stroke-width="0.2" stroke-miterlimit="10"/>
<path d="M55.779 13.0002H55.008V7.73724H53.332V7.00024H57.455V7.73724H55.779V13.0002Z" stroke="white" stroke-width="0.2" stroke-miterlimit="10"/>
<path d="M60.438 13.0002V7.00024H61.209V13.0002H60.438Z" stroke="white" stroke-width="0.2" stroke-miterlimit="10"/>
<path d="M64.6281 13.0002H63.8572V7.73724H62.1812V7.00024H66.3042V7.73724H64.6281V13.0002Z" stroke="white" stroke-width="0.2" stroke-miterlimit="10"/>
<path d="M74.1089 12.2252C73.5189 12.8312 72.7859 13.1342 71.9089 13.1342C71.0319 13.1342 70.2989 12.8312 69.7099 12.2252C69.1199 11.6192 68.8259 10.8772 68.8259 10.0002C68.8259 9.12323 69.1199 8.38123 69.7099 7.77523C70.2989 7.16923 71.0319 6.86523 71.9089 6.86523C72.7809 6.86523 73.5129 7.17023 74.1049 7.77923C74.6969 8.38823 74.9929 9.12823 74.9929 10.0002C74.9929 10.8772 74.6979 11.6192 74.1089 12.2252ZM70.2789 11.7222C70.7229 12.1722 71.2659 12.3962 71.9089 12.3962C72.5519 12.3962 73.0959 12.1712 73.5389 11.7222C73.9829 11.2722 74.2059 10.6982 74.2059 10.0002C74.2059 9.30223 73.9829 8.72823 73.5389 8.27823C73.0959 7.82823 72.5519 7.60423 71.9089 7.60423C71.2659 7.60423 70.7229 7.82923 70.2789 8.27823C69.8359 8.72823 69.6129 9.30223 69.6129 10.0002C69.6129 10.6982 69.8359 11.2722 70.2789 11.7222Z" stroke="white" stroke-width="0.2" stroke-miterlimit="10"/>
<path d="M76.0749 13.0002V7.00024H77.013L79.929 11.6672H79.9619L79.929 10.5112V7.00024H80.6999V13.0002H79.8949L76.844 8.10625H76.8109L76.844 9.26224V13.0002H76.0749Z" stroke="white" stroke-width="0.2" stroke-miterlimit="10"/>
<g filter="url(#filter0_ii_747_293245)">
<path d="M10.9361 7.53784C10.6451 7.84584 10.4731 8.32384 10.4731 8.94284V31.0588C10.4731 31.6788 10.6451 32.1558 10.9361 32.4638L11.0101 32.5358L23.3991 20.1468V20.0008V19.8548L11.0101 7.46484L10.9361 7.53784Z" fill="url(#paint0_linear_747_293245)"/>
<path d="M27.5279 24.2776L23.3989 20.1466V20.0006V19.8546L27.5289 15.7246L27.6219 15.7776L32.5149 18.5576C33.9119 19.3516 33.9119 20.6506 32.5149 21.4456L27.6219 24.2256L27.5279 24.2776Z" fill="url(#paint1_linear_747_293245)"/>
<g filter="url(#filter1_i_747_293245)">
<path d="M27.622 24.224L23.398 20L10.936 32.463C11.396 32.951 12.157 33.011 13.014 32.525L27.622 24.224Z" fill="url(#paint2_linear_747_293245)"/>
</g>
<path d="M27.622 15.7767L13.014 7.4767C12.157 6.9897 11.396 7.0507 10.936 7.5387L23.399 20.0017L27.622 15.7767Z" fill="url(#paint3_linear_747_293245)"/>
</g>
<path d="M5.5 1H130.5V-1H5.5V1ZM134.5 5V35H136.5V5H134.5ZM130.5 39H5.5V41H130.5V39ZM1.5 35V5H-0.5V35H1.5ZM5.5 39C3.29086 39 1.5 37.2091 1.5 35H-0.5C-0.5 38.3137 2.18629 41 5.5 41V39ZM134.5 35C134.5 37.2091 132.709 39 130.5 39V41C133.814 41 136.5 38.3137 136.5 35H134.5ZM130.5 1C132.709 1 134.5 2.79086 134.5 5H136.5C136.5 1.68629 133.814 -1 130.5 -1V1ZM5.5 -1C2.18629 -1 -0.5 1.68629 -0.5 5H1.5C1.5 2.79086 3.29086 1 5.5 1V-1Z" fill="#A6A6A6"/>
<defs>
<filter id="filter0_ii_747_293245" x="10.4731" y="7.14062" width="23.0894" height="25.7207" filterUnits="userSpaceOnUse" color-interpolation-filters="sRGB">
<feFlood flood-opacity="0" result="BackgroundImageFix"/>
<feBlend mode="normal" in="SourceGraphic" in2="BackgroundImageFix" result="shape"/>
<feColorMatrix in="SourceAlpha" type="matrix" values="0 0 0 0 0 0 0 0 0 0 0 0 0 0 0 0 0 0 127 0" result="hardAlpha"/>
<feOffset dy="-0.15"/>
<feComposite in2="hardAlpha" operator="arithmetic" k2="-1" k3="1"/>
<feColorMatrix type="matrix" values="0 0 0 0 0 0 0 0 0 0 0 0 0 0 0 0 0 0 0.12 0"/>
<feBlend mode="normal" in2="shape" result="effect1_innerShadow_747_293245"/>
<feColorMatrix in="SourceAlpha" type="matrix" values="0 0 0 0 0 0 0 0 0 0 0 0 0 0 0 0 0 0 127 0" result="hardAlpha"/>
<feOffset dy="0.15"/>
<feComposite in2="hardAlpha" operator="arithmetic" k2="-1" k3="1"/>
<feColorMatrix type="matrix" values="0 0 0 0 1 0 0 0 0 1 0 0 0 0 1 0 0 0 0.25 0"/>
<feBlend mode="normal" in2="effect1_innerShadow_747_293245" result="effect2_innerShadow_747_293245"/>
</filter>
<filter id="filter1_i_747_293245" x="10.936" y="20" width="16.686" height="12.8613" filterUnits="userSpaceOnUse" color-interpolation-filters="sRGB">
<feFlood flood-opacity="0" result="BackgroundImageFix"/>
<feBlend mode="normal" in="SourceGraphic" in2="BackgroundImageFix" result="shape"/>
<feColorMatrix in="SourceAlpha" type="matrix" values="0 0 0 0 0 0 0 0 0 0 0 0 0 0 0 0 0 0 127 0" result="hardAlpha"/>
<feOffset dy="-0.15"/>
<feComposite in2="hardAlpha" operator="arithmetic" k2="-1" k3="1"/>
<feColorMatrix type="matrix" values="0 0 0 0 0 0 0 0 0 0 0 0 0 0 0 0 0 0 0.08 0"/>
<feBlend mode="normal" in2="shape" result="effect1_innerShadow_747_293245"/>
</filter>
<linearGradient id="paint0_linear_747_293245" x1="22.3009" y1="8.70884" x2="5.51895" y2="25.4908" gradientUnits="userSpaceOnUse">
<stop stop-color="#00A0FF"/>
<stop offset="0.0066" stop-color="#00A1FF"/>
<stop offset="0.2601" stop-color="#00BEFF"/>
<stop offset="0.5122" stop-color="#00D2FF"/>
<stop offset="0.7604" stop-color="#00DFFF"/>
<stop offset="1" stop-color="#00E3FF"/>
</linearGradient>
<linearGradient id="paint1_linear_747_293245" x1="34.3334" y1="20.0006" x2="10.1375" y2="20.0006" gradientUnits="userSpaceOnUse">
<stop stop-color="#FFE000"/>
<stop offset="0.4087" stop-color="#FFBD00"/>
<stop offset="0.7754" stop-color="#FFA500"/>
<stop offset="1" stop-color="#FF9C00"/>
</linearGradient>
<linearGradient id="paint2_linear_747_293245" x1="25.3281" y1="22.2939" x2="2.56964" y2="45.0524" gradientUnits="userSpaceOnUse">
<stop stop-color="#FF3A44"/>
<stop offset="1" stop-color="#C31162"/>
</linearGradient>
<linearGradient id="paint3_linear_747_293245" x1="7.79743" y1="0.176501" x2="17.9597" y2="10.3388" gradientUnits="userSpaceOnUse">
<stop stop-color="#32A071"/>
<stop offset="0.0685" stop-color="#2DA771"/>
<stop offset="0.4762" stop-color="#15CF74"/>
<stop offset="0.8009" stop-color="#06E775"/>
<stop offset="1" stop-color="#00F076"/>
</linearGradient>
</defs>
</svg>

<svg width="136" height="40" fill="none" xmlns="http://www.w3.org/2000/svg"><path d="M.5 5a5 5 0 015-5h125a5 5 0 015 5v30a5 5 0 01-5 5H5.5a5 5 0 01-5-5V5z" fill="#000"/><path d="M68.636 21.75c-2.352 0-4.269 1.79-4.269 4.254 0 2.449 1.917 4.253 4.269 4.253 2.353 0 4.27-1.804 4.27-4.253-.001-2.464-1.918-4.253-4.27-4.253zm0 6.833c-1.289 0-2.4-1.063-2.4-2.578 0-1.531 1.112-2.578 2.4-2.578 1.289 0 2.4 1.047 2.4 2.578 0 1.514-1.111 2.578-2.4 2.578zm-9.314-6.832c-2.352 0-4.269 1.789-4.269 4.253 0 2.449 1.917 4.253 4.269 4.253 2.353 0 4.27-1.804 4.27-4.253 0-2.464-1.917-4.253-4.27-4.253zm0 6.832c-1.289 0-2.4-1.063-2.4-2.578 0-1.531 1.112-2.578 2.4-2.578 1.289 0 2.4 1.047 2.4 2.578.001 1.514-1.111 2.578-2.4 2.578zm-11.078-5.526v1.804h4.318c-.129 1.015-.467 1.756-.983 2.27-.628.629-1.611 1.322-3.335 1.322-2.658 0-4.736-2.143-4.736-4.801 0-2.658 2.078-4.801 4.736-4.801 1.434 0 2.481.564 3.254 1.289l1.273-1.273c-1.08-1.031-2.513-1.82-4.527-1.82-3.641 0-6.702 2.964-6.702 6.605 0 3.64 3.061 6.605 6.702 6.605 1.965 0 3.448-.645 4.607-1.853 1.192-1.192 1.563-2.868 1.563-4.221 0-.418-.032-.805-.097-1.127h-6.073zm45.308 1.4c-.354-.95-1.434-2.706-3.641-2.706-2.191 0-4.012 1.724-4.012 4.253 0 2.384 1.805 4.253 4.221 4.253 1.949 0 3.077-1.192 3.545-1.885l-1.45-.967c-.483.709-1.144 1.176-2.095 1.176-.95 0-1.627-.435-2.062-1.29l5.687-2.351-.193-.482zm-5.8 1.419c-.048-1.644 1.273-2.481 2.224-2.481.741 0 1.369.37 1.579.902l-3.803 1.579zM83.129 30h1.868V17.499h-1.868v12.5zm-3.062-7.298h-.064c-.419-.5-1.225-.951-2.239-.951-2.127 0-4.076 1.869-4.076 4.27 0 2.384 1.949 4.237 4.076 4.237 1.015 0 1.82-.451 2.239-.966h.064v.612c0 1.627-.87 2.497-2.271 2.497-1.144 0-1.853-.821-2.143-1.514l-1.627.677c.467 1.127 1.707 2.513 3.77 2.513 2.191 0 4.044-1.29 4.044-4.431V22.01h-1.772v.692h-.001zm-2.142 5.88c-1.289 0-2.368-1.08-2.368-2.561 0-1.5 1.079-2.594 2.368-2.594 1.272 0 2.271 1.095 2.271 2.594 0 1.482-.999 2.562-2.271 2.562zM102.306 17.5h-4.471V30H99.7v-4.735h2.605c2.068 0 4.102-1.497 4.102-3.882s-2.033-3.883-4.101-3.883zm.048 6.025H99.7V19.24h2.654c1.395 0 2.187 1.155 2.187 2.143 0 .968-.792 2.142-2.187 2.142zm11.532-1.795c-1.351 0-2.75.595-3.329 1.914l1.656.69c.354-.69 1.014-.916 1.705-.916.965 0 1.946.579 1.962 1.608v.129c-.338-.193-1.062-.482-1.946-.482-1.785 0-3.603.98-3.603 2.814 0 1.673 1.464 2.75 3.104 2.75 1.254 0 1.946-.563 2.38-1.223h.064v.965h1.802v-4.793c.001-2.218-1.657-3.456-3.795-3.456zm-.226 6.85c-.61 0-1.463-.305-1.463-1.061 0-.965 1.062-1.335 1.979-1.335.819 0 1.206.177 1.704.418a2.262 2.262 0 01-2.22 1.979zm10.583-6.577l-2.139 5.42h-.064l-2.22-5.42h-2.01l3.329 7.575-1.898 4.214h1.946L126.318 22h-2.075zM107.437 30h1.865V17.499h-1.865v12.5zM47.918 10.243c0 .838-.248 1.505-.745 2.003-.564.592-1.3.888-2.204.888-.866 0-1.603-.3-2.208-.9-.606-.6-.909-1.345-.909-2.233 0-.889.303-1.633.91-2.233.604-.6 1.341-.9 2.207-.9.43 0 .841.083 1.231.25.391.168.704.391.938.67l-.527.528c-.397-.475-.944-.712-1.643-.712-.632 0-1.178.222-1.639.666-.461.444-.69 1.021-.69 1.73 0 .71.229 1.286.69 1.73a2.282 2.282 0 001.639.666c.67 0 1.23-.223 1.676-.67.29-.29.458-.696.503-1.215h-2.179v-.72h2.907c.03.156.043.307.043.452zm4.61-2.506h-2.732V9.64h2.464v.721h-2.464v1.902h2.732V13h-3.503V7h3.503v.737zM55.779 13h-.771V7.737h-1.676V7h4.123v.737h-1.676V13zm4.659 0V7h.771v6h-.771zm4.19 0h-.77V7.737H62.18V7h4.123v.737h-1.676V13zm9.481-.775c-.59.606-1.323.91-2.2.91-.877 0-1.61-.304-2.2-.91-.59-.606-.883-1.348-.883-2.225s.294-1.619.884-2.225c.589-.606 1.322-.91 2.199-.91.872 0 1.604.305 2.196.914.592.61.888 1.35.888 2.221 0 .877-.295 1.62-.884 2.225zm-3.83-.503a2.2 2.2 0 001.63.674c.643 0 1.187-.225 1.63-.674.444-.45.667-1.024.667-1.722s-.223-1.272-.667-1.722a2.199 2.199 0 00-1.63-.674c-.643 0-1.186.225-1.63.674-.443.45-.666 1.024-.666 1.722s.223 1.272.666 1.722zM76.075 13V7h.938l2.916 4.667h.033l-.033-1.156v-3.51h.77v6h-.804l-3.051-4.895h-.033l.033 1.156V13h-.77z" fill="#fff"/><path d="M47.918 10.243c0 .838-.248 1.505-.745 2.003-.564.592-1.3.888-2.204.888-.866 0-1.603-.3-2.208-.9-.606-.6-.909-1.345-.909-2.233 0-.889.303-1.633.91-2.233.604-.6 1.341-.9 2.207-.9.43 0 .841.083 1.231.25.391.168.704.391.938.67l-.527.528c-.397-.475-.944-.712-1.643-.712-.632 0-1.178.222-1.639.666-.461.444-.69 1.021-.69 1.73 0 .71.229 1.286.69 1.73a2.282 2.282 0 001.639.666c.67 0 1.23-.223 1.676-.67.29-.29.458-.696.503-1.215h-2.179v-.72h2.907c.03.156.043.307.043.452zm4.61-2.506h-2.732V9.64h2.464v.721h-2.464v1.902h2.732V13h-3.503V7h3.503v.737zM55.779 13h-.771V7.737h-1.676V7h4.123v.737h-1.676V13zm4.659 0V7h.771v6h-.771zm4.19 0h-.77V7.737H62.18V7h4.123v.737h-1.676V13zm9.481-.775c-.59.606-1.323.91-2.2.91-.877 0-1.61-.304-2.2-.91-.59-.606-.883-1.348-.883-2.225s.294-1.619.884-2.225c.589-.606 1.322-.91 2.199-.91.872 0 1.604.305 2.196.914.592.61.888 1.35.888 2.221 0 .877-.295 1.62-.884 2.225zm-3.83-.503a2.2 2.2 0 001.63.674c.643 0 1.187-.225 1.63-.674.444-.45.667-1.024.667-1.722s-.223-1.272-.667-1.722a2.199 2.199 0 00-1.63-.674c-.643 0-1.186.225-1.63.674-.443.45-.666 1.024-.666 1.722s.223 1.272.666 1.722zM76.075 13V7h.938l2.916 4.667h.033l-.033-1.156v-3.51h.77v6h-.804l-3.051-4.895h-.033l.033 1.156V13h-.77z" stroke="#fff" stroke-width=".2" stroke-miterlimit="10"/><g filter="url(#filter0_ii_747_293245)"><path d="M10.936 7.538c-.29.308-.463.786-.463 1.405v22.116c0 .62.172 1.097.463 1.405l.074.072 12.39-12.39v-.291L11.01 7.465l-.074.073z" fill="url(#paint0_linear_747_293245)"/><path d="M27.528 24.278l-4.13-4.131v-.292l4.13-4.13.094.053 4.893 2.78c1.397.794 1.397 2.093 0 2.888l-4.893 2.78-.094.052z" fill="url(#paint1_linear_747_293245)"/><g filter="url(#filter1_i_747_293245)"><path d="M27.622 24.224L23.398 20 10.936 32.463c.46.488 1.221.548 2.078.062l14.608-8.301z" fill="url(#paint2_linear_747_293245)"/></g><path d="M27.622 15.777l-14.608-8.3c-.857-.487-1.618-.426-2.078.062l12.463 12.463 4.223-4.225z" fill="url(#paint3_linear_747_293245)"/></g><path d="M5.5 1h125v-2H5.5v2zm129 4v30h2V5h-2zm-4 34H5.5v2h125v-2zm-129-4V5h-2v30h2zm4 4a4 4 0 01-4-4h-2a6 6 0 006 6v-2zm129-4a4 4 0 01-4 4v2a6 6 0 006-6h-2zm-4-34a4 4 0 014 4h2a6 6 0 00-6-6v2zM5.5-1a6 6 0 00-6 6h2a4 4 0 014-4v-2z" fill="#A6A6A6"/><defs><linearGradient id="paint0_linear_747_293245" x1="22.301" y1="8.709" x2="5.519" y2="25.491" gradientUnits="userSpaceOnUse"><stop stop-color="#00A0FF"/><stop offset=".007" stop-color="#00A1FF"/><stop offset=".26" stop-color="#00BEFF"/><stop offset=".512" stop-color="#00D2FF"/><stop offset=".76" stop-color="#00DFFF"/><stop offset="1" stop-color="#00E3FF"/></linearGradient><linearGradient id="paint1_linear_747_293245" x1="34.333" y1="20.001" x2="10.137" y2="20.001" gradientUnits="userSpaceOnUse"><stop stop-color="#FFE000"/><stop offset=".409" stop-color="#FFBD00"/><stop offset=".775" stop-color="orange"/><stop offset="1" stop-color="#FF9C00"/></linearGradient><linearGradient id="paint2_linear_747_293245" x1="25.328" y1="22.294" x2="2.57" y2="45.052" gradientUnits="userSpaceOnUse"><stop stop-color="#FF3A44"/><stop offset="1" stop-color="#C31162"/></linearGradient><linearGradient id="paint3_linear_747_293245" x1="7.797" y1=".177" x2="17.96" y2="10.339" gradientUnits="userSpaceOnUse"><stop stop-color="#32A071"/><stop offset=".069" stop-color="#2DA771"/><stop offset=".476" stop-color="#15CF74"/><stop offset=".801" stop-color="#06E775"/><stop offset="1" stop-color="#00F076"/></linearGradient><filter id="filter0_ii_747_293245" x="10.473" y="7.141" width="23.089" height="25.721" filterUnits="userSpaceOnUse" color-interpolation-filters="sRGB"><feFlood flood-opacity="0" result="BackgroundImageFix"/><feBlend in="SourceGraphic" in2="BackgroundImageFix" result="shape"/><feColorMatrix in="SourceAlpha" values="0 0 0 0 0 0 0 0 0 0 0 0 0 0 0 0 0 0 127 0" result="hardAlpha"/><feOffset dy="-.15"/><feComposite in2="hardAlpha" operator="arithmetic" k2="-1" k3="1"/><feColorMatrix values="0 0 0 0 0 0 0 0 0 0 0 0 0 0 0 0 0 0 0.12 0"/><feBlend in2="shape" result="effect1_innerShadow_747_293245"/><feColorMatrix in="SourceAlpha" values="0 0 0 0 0 0 0 0 0 0 0 0 0 0 0 0 0 0 127 0" result="hardAlpha"/><feOffset dy=".15"/><feComposite in2="hardAlpha" operator="arithmetic" k2="-1" k3="1"/><feColorMatrix values="0 0 0 0 1 0 0 0 0 1 0 0 0 0 1 0 0 0 0.25 0"/><feBlend in2="effect1_innerShadow_747_293245" result="effect2_innerShadow_747_293245"/></filter><filter id="filter1_i_747_293245" x="10.936" y="20" width="16.686" height="12.861" filterUnits="userSpaceOnUse" color-interpolation-filters="sRGB"><feFlood flood-opacity="0" result="BackgroundImageFix"/><feBlend in="SourceGraphic" in2="BackgroundImageFix" result="shape"/><feColorMatrix in="SourceAlpha" values="0 0 0 0 0 0 0 0 0 0 0 0 0 0 0 0 0 0 127 0" result="hardAlpha"/><feOffset dy="-.15"/><feComposite in2="hardAlpha" operator="arithmetic" k2="-1" k3="1"/><feColorMatrix values="0 0 0 0 0 0 0 0 0 0 0 0 0 0 0 0 0 0 0.08 0"/><feBlend in2="shape" result="effect1_innerShadow_747_293245"/></filter></defs></svg>
